X: 15
T: Jenny's Welcome To Charlie
Z: RobSheldrick
S: https://thesession.org/tunes/370#setting52010
R: reel
M: 4/4
L: 1/8
K: Ddor
|:~D3 B AGED|Ec~c2 dc~c2|DEDB AGED|E/F/GcG EDCE|
~D3 B AGED|Ec~c2 dAcd|{e}dcdc AGEG|1 G/G/EcG EDCE:|2 EGcG EDD2||
|:~f4 efed|cA ~A2 cAGe|fedf eAB/c/d|ea{b}ag edd2|
f3e- efed|c2Ac GAcd|d/d/cdc AGEG|G/G/EcG EAD2:|
|:a4 age^f|~g3 a gedg|eaag agag|eaag e/e/gdg|
eaa2 age^f|g^fga gedB|GAcd d/d/cdc|1 AGcG E/E/FGg:|2 AGcG EFGc||
|:Ad~d2 defc|Ac~c2 cAGc|d3d {e}~d2 cd|eaag eddc|
d2 ce dcAB|~cBcd cAGE|DEFG Addc|1 A/c/AGF EFGc:|2 A/A/cGF EDCE||

%-------------------- TUNE SEPARATOR --------------------%

